packages/icons/src/components/Icon/assets/default-solid/calculator.svg

<svg width="20" height="20" viewBox="0 0 20 20" fill="none" xmlns="http://www.w3.org/2000/svg">
<path fill-rule="evenodd" clip-rule="evenodd" d="M10.0001 2C8.47441 2 6.97037 2.09378 5.49343 2.27596C4.49409 2.39923 3.77783 3.25665 3.77783 4.23699V16C3.77783 17.1046 4.67326 18 5.77783 18H14.2223C15.3268 18 16.2223 17.1046 16.2223 16V4.23699C16.2223 3.25666 15.506 2.39923 14.5067 2.27596C13.0297 2.09378 11.5257 2 10.0001 2ZM6.43582 8.88889C6.43582 8.5207 6.73429 8.22222 7.10248 8.22222H7.11137C7.47956 8.22222 7.77804 8.5207 7.77804 8.88889V8.89778C7.77804 9.26597 7.47956 9.56444 7.11137 9.56444H7.10248C6.73429 9.56444 6.43582 9.26597 6.43582 8.89778V8.88889ZM7.10248 10.1481C6.73429 10.1481 6.43582 10.4466 6.43582 10.8148V10.8237C6.43582 11.1919 6.73429 11.4903 7.10248 11.4903H7.11137C7.47956 11.4903 7.77804 11.1919 7.77804 10.8237V10.8148C7.77804 10.4466 7.47956 10.1481 7.11137 10.1481H7.10248ZM6.43582 12.7407C6.43582 12.3725 6.73429 12.074 7.10248 12.074H7.11137C7.47956 12.074 7.77804 12.3725 7.77804 12.7407V12.7496C7.77804 13.1177 7.47956 13.4162 7.11137 13.4162H7.10248C6.73429 13.4162 6.43582 13.1177 6.43582 12.7496V12.7407ZM7.10248 13.9999C6.73429 13.9999 6.43582 14.2984 6.43582 14.6666V14.6754C6.43582 15.0436 6.73429 15.3421 7.10248 15.3421H7.11137C7.47956 15.3421 7.77804 15.0436 7.77804 14.6754V14.6666C7.77804 14.2984 7.47956 13.9999 7.11137 13.9999H7.10248ZM8.36175 8.88889C8.36175 8.5207 8.66023 8.22222 9.02842 8.22222H9.0373C9.40549 8.22222 9.70397 8.5207 9.70397 8.88889V8.89778C9.70397 9.26597 9.40549 9.56444 9.0373 9.56444H9.02842C8.66023 9.56444 8.36175 9.26597 8.36175 8.89778V8.88889ZM9.02842 10.1481C8.66023 10.1481 8.36175 10.4466 8.36175 10.8148V10.8237C8.36175 11.1919 8.66023 11.4903 9.02842 11.4903H9.0373C9.40549 11.4903 9.70397 11.1919 9.70397 10.8237V10.8148C9.70397 10.4466 9.40549 10.1481 9.0373 10.1481H9.02842ZM8.36175 12.7407C8.36175 12.3725 8.66023 12.074 9.02842 12.074H9.0373C9.40549 12.074 9.70397 12.3725 9.70397 12.7407V12.7496C9.70397 13.1177 9.40549 13.4162 9.0373 13.4162H9.02842C8.66023 13.4162 8.36175 13.1177 8.36175 12.7496V12.7407ZM9.02842 13.9999C8.66023 13.9999 8.36175 14.2984 8.36175 14.6666V14.6754C8.36175 15.0436 8.66023 15.3421 9.02842 15.3421H9.0373C9.40549 15.3421 9.70397 15.0436 9.70397 14.6754V14.6666C9.70397 14.2984 9.40549 13.9999 9.0373 13.9999H9.02842ZM10.2906 8.88889C10.2906 8.5207 10.5891 8.22222 10.9573 8.22222H10.9662C11.3344 8.22222 11.6329 8.5207 11.6329 8.88889V8.89778C11.6329 9.26597 11.3344 9.56444 10.9662 9.56444H10.9573C10.5891 9.56444 10.2906 9.26597 10.2906 8.89778V8.88889ZM10.9573 10.1481C10.5891 10.1481 10.2906 10.4466 10.2906 10.8148V10.8237C10.2906 11.1919 10.5891 11.4903 10.9573 11.4903H10.9662C11.3344 11.4903 11.6329 11.1919 11.6329 10.8237V10.8148C11.6329 10.4466 11.3344 10.1481 10.9662 10.1481H10.9573ZM10.2906 12.7407C10.2906 12.3725 10.5891 12.074 10.9573 12.074H10.9662C11.3344 12.074 11.6329 12.3725 11.6329 12.7407V12.7496C11.6329 13.1177 11.3344 13.4162 10.9662 13.4162H10.9573C10.5891 13.4162 10.2906 13.1177 10.2906 12.7496V12.7407ZM10.9573 13.9999C10.5891 13.9999 10.2906 14.2984 10.2906 14.6666V14.6754C10.2906 15.0436 10.5891 15.3421 10.9573 15.3421H10.9662C11.3344 15.3421 11.6329 15.0436 11.6329 14.6754V14.6666C11.6329 14.2984 11.3344 13.9999 10.9662 13.9999H10.9573ZM12.2225 8.88889C12.2225 8.5207 12.521 8.22222 12.8892 8.22222H12.898C13.2662 8.22222 13.5647 8.5207 13.5647 8.88889V8.89778C13.5647 9.26597 13.2662 9.56444 12.898 9.56444H12.8892C12.521 9.56444 12.2225 9.26597 12.2225 8.89778V8.88889ZM12.8892 10.1481C12.521 10.1481 12.2225 10.4466 12.2225 10.8148V10.8237C12.2225 11.1919 12.521 11.4903 12.8892 11.4903H12.898C13.2662 11.4903 13.5647 11.1919 13.5647 10.8237V10.8148C13.5647 10.4466 13.2662 10.1481 12.898 10.1481H12.8892ZM12.8892 12.0741C13.2573 12.0741 13.5558 12.3726 13.5558 12.7408V14.6667C13.5558 15.0349 13.2573 15.3334 12.8892 15.3334C12.521 15.3334 12.2225 15.0349 12.2225 14.6667V12.7408C12.2225 12.3726 12.521 12.0741 12.8892 12.0741ZM7.11117 4.66667C6.74298 4.66667 6.4445 4.96514 6.4445 5.33333V5.77778C6.4445 6.14597 6.74298 6.44444 7.11117 6.44444H12.8889C13.2571 6.44444 13.5556 6.14597 13.5556 5.77778V5.33333C13.5556 4.96514 13.2571 4.66667 12.8889 4.66667H7.11117Z" fill="#727683"/>
</svg>

<svg xmlns="http://www.w3.org/2000/svg" width="20" height="20" fill="none" viewBox="0 0 20 20">
    <path d="M10 2q-2.29.002-4.507.276a1.965 1.965 0 0 0-1.715 1.961V16a2 2 0 0 0 2 2h8.444a2 2 0 0 0 2-2V4.237c0-.98-.716-1.838-1.715-1.961A37 37 0 0 0 10 2M6.436 8.889c0-.368.298-.667.666-.667h.01c.368 0 .666.299.666.667v.009a.667.667 0 0 1-.667.666h-.009a.667.667 0 0 1-.666-.666zm.666 1.26a.667.667 0 0 0-.666.666v.009c0 .368.298.666.666.666h.01a.667.667 0 0 0 .666-.666v-.01a.667.667 0 0 0-.667-.666zm-.666 2.592c0-.368.298-.667.666-.667h.01c.368 0 .666.299.666.667v.009a.667.667 0 0 1-.667.666h-.009a.667.667 0 0 1-.666-.666zM7.102 14a.667.667 0 0 0-.666.667v.008c0 .369.298.667.666.667h.01a.667.667 0 0 0 .666-.667v-.008A.667.667 0 0 0 7.111 14zm1.26-5.111c0-.368.298-.667.666-.667h.01c.367 0 .666.299.666.667v.009a.667.667 0 0 1-.667.666h-.009a.667.667 0 0 1-.666-.666zm.666 1.26a.667.667 0 0 0-.666.666v.009c0 .368.298.666.666.666h.01a.667.667 0 0 0 .666-.666v-.01a.667.667 0 0 0-.667-.666zm-.666 2.592c0-.368.298-.667.666-.667h.01c.367 0 .666.299.666.667v.009a.667.667 0 0 1-.667.666h-.009a.667.667 0 0 1-.666-.666zM9.028 14a.667.667 0 0 0-.666.667v.008c0 .369.298.667.666.667h.01a.667.667 0 0 0 .666-.667v-.008A.667.667 0 0 0 9.037 14zm1.263-5.111c0-.368.298-.667.666-.667h.01c.367 0 .666.299.666.667v.009a.667.667 0 0 1-.667.666h-.009a.667.667 0 0 1-.666-.666zm.666 1.26a.667.667 0 0 0-.666.666v.009c0 .368.298.666.666.666h.01a.667.667 0 0 0 .666-.666v-.01a.667.667 0 0 0-.667-.666zm-.666 2.592c0-.368.298-.667.666-.667h.01c.367 0 .666.299.666.667v.009a.667.667 0 0 1-.667.666h-.009a.667.667 0 0 1-.666-.666zM10.957 14a.667.667 0 0 0-.666.667v.008c0 .369.298.667.666.667h.01a.667.667 0 0 0 .666-.667v-.008a.667.667 0 0 0-.667-.667zm1.265-5.111c0-.368.299-.667.667-.667h.009c.368 0 .667.299.667.667v.009a.667.667 0 0 1-.667.666h-.009a.667.667 0 0 1-.666-.666zm.667 1.26a.667.667 0 0 0-.666.666v.009c0 .368.298.666.666.666h.009a.667.667 0 0 0 .667-.666v-.01a.667.667 0 0 0-.667-.666zm0 1.925c.368 0 .667.299.667.667v1.926a.667.667 0 1 1-1.333 0V12.74c0-.368.298-.667.666-.667M7.111 4.667a.667.667 0 0 0-.667.666v.445c0 .368.299.666.667.666h5.778a.667.667 0 0 0 .667-.666v-.445a.667.667 0 0 0-.667-.666z" clip-rule="evenodd"/>
</svg>
